X:19273
T:Zepperl Polka
R:polka
C:Trad.
O:German
Z:Transcribed and arranged by Daryl Powell
Z:Canberra
P:AABB x4
M:2/4
L:1/8
K:G
"G"B/B/B/B/ Bd | B/B/B/B/ B/D/E/D/ | "G"DB/B/ DB/B/ | "D7"cc c2 |
"D7"D/c/c/c/ cd | "C"e/e/e/e/ "G"d2 | "D7"DF/A/ dF | "G"GG G>G :|
[K:C]
"C"G/e/e/e/ ec | G/G/G/G/ G>c | "G"BG d>B | "C"cd eg |
"C"G/e/e/e/ ec | G/G/G/G/ G>c | "G"BG d>B | "C"cc c2 :|
